src/actions/32/zoom-previous.svg

<svg xmlns="http://www.w3.org/2000/svg" viewBox="0 0 32 32">
  <defs id="defs3051">
    <style type="text/css" id="current-color-scheme">
      .ColorScheme-Text {
        color:#2e3440;
      }
      </style>
  </defs>
 <path style="fill:currentColor;fill-opacity:1;stroke:none" 
       d="M 4 4 L 4 9 L 5 9 L 5 5 L 9 5 L 9 4 L 4 4 z M 23 4 L 23 5 L 27 5 L 27 9 L 28 9 L 28 4 L 23 4 z M 18.291016 8.25 L 11 15.982422 L 18.326172 23.75 L 19 22.990234 L 12.333984 15.982422 L 19 8.9726562 L 18.291016 8.25 z M 4 23 L 4 28 L 9 28 L 9 27 L 5 27 L 5 23 L 4 23 z M 27 23 L 27 27 L 23 27 L 23 28 L 28 28 L 28 23 L 27 23 z "
     class="ColorScheme-Text"
     />
</svg>

<svg viewBox="0 0 32 32" xmlns="http://www.w3.org/2000/svg">
 <defs>
  <style type="text/css">.ColorScheme-Text {
        color:#2e3440;
      }</style>
 </defs>
 <path class="ColorScheme-Text" d="m4 4v5h1v-4h4v-1h-5zm19 0v1h4v4h1v-5h-5zm-4.709 4.25-7.291 7.7324 7.3262 7.7676 0.67383-0.75977-6.666-7.0078 6.666-7.0098-0.70898-0.72266zm-14.291 14.75v5h5v-1h-4v-4h-1zm23 0v4h-4v1h5v-5h-1z" fill="currentColor"/>
</svg>
